X:1
T:Title
%%score ( 1 2 ) { 3 | 4 }
L:1/8
Q:1/4=83
M:6/8
K:F
V:1 treble nm="Grand Piano, Soprano"
V:2 treble 
V:3 bass nm="Choir Pad, At the Savior�s Right Hand"
V:4 bass 
V:1
 F/[FG]<[FA][F_A]/ [F=A]F[FG] | [FA][FB]>[FA] [FB] [EG]2 | [FA]/[GB]<[Ac][Bd]/ [Ac][Ac][FA] | %3
w: By~George~Blackburn~Holsinger * * * * * *|||
 FF[EG] [FA] [EG]2 | F/[FG]<[FA][F_A]/ [F=A]F[FG] | [FA][FB]>[FA] [FB] [EG]2 | %6
w: |||
 [FA]/[GB]<[Ac][Bd]/ [Ac][Ac][FA] | F[FA][CF] [CG] [CF]2 | [Ac] [Af]2- [Af]2 [ce] | %9
w: |||
 [Bd] [Ac]2- [Ac]2- [Ac]/ z/ | [FA] [Ac]2- [Ac]2 [GB] | [FA] [EG]2- [EG]2- [EG]/ z/ | %12
w: |||
 [FA]/[Ac]/ [Af]2- [Af]2 [ce] | [Bd] [Ac]2- [Ac]2- [Ac]/ z/ | [FA][Ac]>[FA] F[FA][CF] | %15
w: |||
 [CG] F2- [DF-] [CF]2- | [CF]6 |] %17
w: ||
V:2
 x6 | x6 | x6 | x6 | x6 | x6 | x6 | x6 | x6 | x6 | x6 | x6 | x6 | x6 | x6 | z C2 z3 | x6 |] %17
V:3
 A,/B,<C=B,/ CA,_B, | CD>D D C2 | C/C<FF/ FFC | A,CC C C2 | A,/B,<C=B,/ CA,_B, | CD>D D C2 | %6
 C/C<FF/ FFC | A,CA, B, A,2 | C C2 C/C/CD | E F2 F F2 | C C2 C/C/CC | C C2 C C2 | C/C<CC/ CCD | %13
 EF>F F F2 | CF>C[K:bass] A,CA, | B, A,2 B, A,2- | A,6 |] %17
V:4
 F,/F,<F,F,/ F,F,F, | F,B,,>B,, B,, B,,2 | F,/F,<F,F,/ F,F,F, | F,A,G, F, C,2 | %4
 F,/F,<F,F,/ F,F,F, | F,B,,>B,, B,, C,2 | F,/F,<F,F,/ F,F,F, | F,C,C, C, F,2 | F, F,2 F,/F,/F,F, | %9
 F, F,2 F, F,2 | F, F,2 F,/F,/F,F, | F, C,2 C, C,2 | F,/F,<F,F,/ F,F,F, | F,F,>F, F, F,2 | %14
 D,D,>D, F,C,C, | C, F,2- F,3- | F,6 |] %17

